!!!COM:	Bach, Johann Sebastian
!!!CDT:	1685/02/21/-1750/07/28/
!!!OTL@@DE:	Wach auf, mein Herz
!!!SCT:	BWV 194/12
!!!PC#:	93
!!!AGN:	chorale
**harm	**kern	**kern	**kern	**kern
*	*ICvox	*ICvox	*ICvox	*ICvox
*	*Ibass	*Itenor	*Ialto	*Isoprn
*	*I"Bass	*I"Tenor	*I"Alto	*I"Soprano
*	*	*oclefC4	*oclefC3	*oclefC1
*	*clefF4	*clefGv2	*clefG2	*clefG2
*k[b-e-]	*k[b-e-]	*k[b-e-]	*k[b-e-]	*k[b-e-]
*B-:	*B-:	*B-:	*B-:	*B-:
*M3/4	*M3/4	*M3/4	*M3/4	*M3/4
*MM100	*MM100	*MM100	*MM100	*MM100
I	4B-	4d	4f	4b-
=1	=1	=1	=1	=1
vi	2G	2d	2g	2b-
iii	4D	4d	4f	4a
=2	=2	=2	=2	=2
IV	4E-	4B-	4e-	4g
V2	4E-	4c	4f	4a
I6	4D	4B-	4f	4b-
=3	=3	=3	=3	=3
ii65	4E-	4B-	4g	4cc
V	2F	2A	2fnX	2cc
=4	=4	=4	=4	=4
I;	2BB-;	2d;	2f;	2b-;
I	4B-	4d	4f	4b-
=5	=5	=5	=5	=5
I6	2D	2d	2f	2b-
F:V6	4E	4c	4g	4cc
=6	=6	=6	=6	=6
I	2F	2c	2f	2a
I6	4A	4c	4f	4f
=7	=7	=7	=7	=7
ii7	2G	2d	2f	2b-
viio6	4G	4B-	4e	4b-
=8	=8	=8	=8	=8
I;	2F;	2c;	2f;	2a;
g:V	4D	4d	4f#	4a
=9	=9	=9	=9	=9
i	2G	2d	2g	2b-
VI	4E-	4e-	4g	4b-
=10	=10	=10	=10	=10
B-:viio6	2C	2A	2e-	2cc
I	4BB-	4B-	4d	4dd
=11	=11	=11	=11	=11
V7/V	2C	2B-	2e	2cc
V7/V	4C	4B-	4g	4cc
=12	=12	=12	=12	=12
V;	2F;	2A;	2f;	2cc;
V6/vi	4F#	4d	4a	4dd
=13	=13	=13	=13	=13
IV65	4G	4d	4b-	4ee-
viio	4A	4c	4cc	4ee-
I	4B-	4B-	4f	4dd
=14	=14	=14	=14	=14
V65/V	4E	4B-	4g	4cc
V6/vi	4F#	4A	4a	4dd
vi	4G	4B-	4d	4b-
=15	=15	=15	=15	=15
I6	4D	4B-	4fnX	4b-
ii65	4E-	4B-	4g	4cc
V	4F	4A	4f	4cc
=16	=16	=16	=16	=16
I;	2.BB-;	2.d;	2.f;	2.b-;
==	==	==	==	==
*-	*-	*-	*-	*-
!!!YOR1: 371 vierstimmige Choralges&auml;nge von Johann Sebastian Bach, 
!!!YOR2: 4th ed. by Alfred D&ouml;rffel (Leipzig: Breitkopf und H&auml;rtel, 
!!!YOR2: c.1875). 178 pp. Plate "V.A.10".  reprint: J.S. Bach, 371 Four-Part 
!!!YOR4: Chorales (New York: Associated Music Publishers, Inc., c.1940).
!!!SMS: B&H, 4th ed, Alfred D&ouml;rffel, c.1875, plate V.A.10
!!!EED:  Craig Stuart Sapp
!!!EEV:  2009/05/22
